src/assets/icons/categories/icon-cat-goingOutAndTravel.svg

<svg xmlns="http://www.w3.org/2000/svg" width="32" height="32" viewBox="0 0 32 32">
  <g fill="none" fill-rule="evenodd">
    <circle cx="16" cy="16" r="16" fill="#40DE8E"/>
    <path fill="#FFFFFF" d="M9.6415,10.2549 C9.4555,10.1779 9.3325,9.9949 9.3325,9.7929 C9.3325,9.5909 9.4545,9.4089 9.6415,9.3309 L13.3365,7.7999 C13.4585,7.7489 13.5975,7.7499 13.7195,7.7989 L18.8945,9.9359 L14.0075,12.0619 L9.6415,10.2549 Z M27.7559,9.9453 C28.2859,11.2253 27.6759,12.6853 26.4019,13.2123 L21.8729,14.9003 L17.9609,22.7233 C17.9129,22.8203 17.8339,22.8993 17.7369,22.9473 L13.7369,24.9473 C13.6669,24.9833 13.5899,25.0003 13.5139,25.0003 C13.3929,25.0003 13.2729,24.9563 13.1789,24.8713 C13.0259,24.7343 12.9729,24.5173 13.0449,24.3243 L15.6479,17.3843 L9.1989,19.9653 C9.0139,20.0373 8.8019,19.9953 8.6599,19.8533 L4.1599,15.3533 C4.0429,15.2363 3.9909,15.0683 4.0229,14.9053 C4.0539,14.7433 4.1639,14.6053 4.3169,14.5403 L7.8169,13.0403 C7.9529,12.9833 8.1069,12.9873 8.2369,13.0523 L11.0279,14.4483 L24.4819,8.5963 C25.7629,8.0643 27.2409,8.7043 27.7559,9.9453 Z"/>
  </g>
</svg>

<svg xmlns="http://www.w3.org/2000/svg" viewBox="0 0 32 32"><g fill="none" fill-rule="evenodd"><circle cx="16" cy="16" r="16" fill="#40DE8E"/><path fill="#FFFFFF" d="M9.64 10.25a.5.5 0 0 1 0-.92l3.7-1.53a.5.5 0 0 1 .38 0l5.17 2.14-4.88 2.12-4.37-1.8zm18.12-.3a2.5 2.5 0 0 1-1.36 3.26l-4.53 1.69-3.9 7.82a.5.5 0 0 1-.23.23l-4 2a.5.5 0 0 1-.7-.62l2.6-6.95-6.44 2.59a.5.5 0 0 1-.54-.12l-4.5-4.5a.5.5 0 0 1 .16-.81l3.5-1.5a.5.5 0 0 1 .42.01l2.79 1.4L24.48 8.6c1.28-.54 2.76.1 3.28 1.35z"/></g></svg>
